trunk/pixmaps/edit-backbone.svg

<?xml version="1.0" encoding="UTF-8" standalone="no"?>
<!-- Created with Inkscape (http://www.inkscape.org/) -->

<svg
   xmlns:dc="http://purl.org/dc/elements/1.1/"
   xmlns:cc="http://creativecommons.org/ns#"
   xmlns:rdf="http://www.w3.org/1999/02/22-rdf-syntax-ns#"
   xmlns:svg="http://www.w3.org/2000/svg"
   xmlns="http://www.w3.org/2000/svg"
   xmlns:xlink="http://www.w3.org/1999/xlink"
   xmlns:sodipodi="http://sodipodi.sourceforge.net/DTD/sodipodi-0.dtd"
   xmlns:inkscape="http://www.inkscape.org/namespaces/inkscape"
   inkscape:export-ydpi="90"
   inkscape:export-xdpi="90"
   inkscape:export-filename="/home/paule/Projects/coot/pixmaps/flip-peptide.png"
   sodipodi:docname="edit-backbone.svg"
   inkscape:version="0.47 r22583"
   sodipodi:version="0.32"
   id="svg2160"
   height="48"
   width="48"
   inkscape:output_extension="org.inkscape.output.svg.inkscape"
   version="1.1">
  <defs
     id="defs2162">
    <marker
       style="overflow:visible"
       id="TriangleOutS"
       refX="0"
       refY="0"
       orient="auto"
       inkscape:stockid="TriangleOutS">
      <path
         transform="scale(0.2,0.2)"
         style="fill-rule:evenodd;stroke:#000000;stroke-width:1pt;marker-start:none"
         d="m 5.77,0 -8.65,5 0,-10 8.65,5 z"
         id="path3674" />
    </marker>
    <marker
       style="overflow:visible"
       id="TriangleOutL"
       refX="0"
       refY="0"
       orient="auto"
       inkscape:stockid="TriangleOutL">
      <path
         transform="scale(0.8,0.8)"
         style="fill-rule:evenodd;stroke:#000000;stroke-width:1pt;marker-start:none"
         d="m 5.77,0 -8.65,5 0,-10 8.65,5 z"
         id="path3680" />
    </marker>
    <radialGradient
       r="2.0087929"
       fy="8.7307281"
       fx="19.057634"
       cy="8.7307262"
       cx="19.057627"
       gradientTransform="scale(0.955533,1.046536)"
       gradientUnits="userSpaceOnUse"
       id="radialGradient5355"
       xlink:href="#linearGradient2342"
       inkscape:collect="always" />
    <radialGradient
       r="2.0087929"
       fy="8.7307281"
       fx="19.057634"
       cy="8.7307262"
       cx="19.057627"
       gradientTransform="scale(0.955533,1.046536)"
       gradientUnits="userSpaceOnUse"
       id="radialGradient5351"
       xlink:href="#linearGradient2342"
       inkscape:collect="always" />
    <radialGradient
       r="2.0087929"
       fy="8.7307281"
       fx="19.057634"
       cy="8.7307262"
       cx="19.057627"
       gradientTransform="scale(0.955533,1.046536)"
       gradientUnits="userSpaceOnUse"
       id="radialGradient5347"
       xlink:href="#linearGradient2352"
       inkscape:collect="always" />
    <radialGradient
       r="2.0087929"
       fy="8.7307281"
       fx="19.057634"
       cy="8.7307262"
       cx="19.057627"
       gradientTransform="scale(0.955533,1.046536)"
       gradientUnits="userSpaceOnUse"
       id="radialGradient5343"
       xlink:href="#linearGradient2352"
       inkscape:collect="always" />
    <radialGradient
       r="2.0087929"
       fy="8.7307281"
       fx="19.057634"
       cy="8.7307262"
       cx="19.057627"
       gradientTransform="scale(0.955533,1.046536)"
       gradientUnits="userSpaceOnUse"
       id="radialGradient5339"
       xlink:href="#linearGradient2352"
       inkscape:collect="always" />
    <radialGradient
       r="2.0087929"
       fy="8.7307281"
       fx="19.057634"
       cy="8.7307262"
       cx="19.057627"
       gradientTransform="scale(0.955533,1.046536)"
       gradientUnits="userSpaceOnUse"
       id="radialGradient5335"
       xlink:href="#linearGradient2352"
       inkscape:collect="always" />
    <marker
       style="overflow:visible"
       id="marker2348"
       refX="0"
       refY="0"
       orient="auto"
       inkscape:stockid="TriangleOutL">
      <path
         transform="scale(0.8,0.8)"
         style="fill-rule:evenodd;stroke:#000000;stroke-width:1pt;marker-start:none"
         d="m 5.77,0 -8.65,5 0,-10 8.65,5 z"
         id="path2350" />
    </marker>
    <marker
       style="overflow:visible"
       id="marker2344"
       refX="0"
       refY="0"
       orient="auto"
       inkscape:stockid="TriangleOutS">
      <path
         transform="scale(0.2,0.2)"
         style="fill-rule:evenodd;stroke:#000000;stroke-width:1pt;marker-start:none"
         d="m 5.77,0 -8.65,5 0,-10 8.65,5 z"
         id="path2346" />
    </marker>
    <radialGradient
       inkscape:collect="always"
       xlink:href="#linearGradient2352"
       id="radialGradient2364"
       gradientUnits="userSpaceOnUse"
       gradientTransform="scale(0.955533,1.046536)"
       cx="19.057627"
       cy="8.7307262"
       fx="19.057634"
       fy="8.7307281"
       r="2.0087929" />
    <linearGradient
       id="linearGradient2352">
      <stop
         style="stop-color:#ccfac1;stop-opacity:1.0000000;"
         offset="0.0000000"
         id="stop2354" />
      <stop
         style="stop-color:#5fa248;stop-opacity:1.0000000;"
         offset="1.0000000"
         id="stop2356" />
    </linearGradient>
    <radialGradient
       inkscape:collect="always"
       xlink:href="#linearGradient2330"
       id="radialGradient2336"
       gradientTransform="scale(0.955533,1.046536)"
       cx="19.057627"
       cy="8.7307262"
       fx="19.057634"
       fy="8.7307281"
       r="2.0087929"
       gradientUnits="userSpaceOnUse" />
    <linearGradient
       id="linearGradient2330">
      <stop
         style="stop-color:#d4c1e3;stop-opacity:1.0000000;"
         offset="0.0000000"
         id="stop2332" />
      <stop
         style="stop-color:#003bff;stop-opacity:1.0000000;"
         offset="1.0000000"
         id="stop2334" />
    </linearGradient>
    <radialGradient
       inkscape:collect="always"
       xlink:href="#linearGradient2342"
       id="radialGradient2340"
       gradientUnits="userSpaceOnUse"
       gradientTransform="scale(0.955533,1.046536)"
       cx="19.057627"
       cy="8.7307262"
       fx="19.057634"
       fy="8.7307281"
       r="2.0087929" />
    <linearGradient
       id="linearGradient2342">
      <stop
         style="stop-color:#e0cec1;stop-opacity:1.0000000;"
         offset="0.0000000"
         id="stop2344" />
      <stop
         style="stop-color:#ff0000;stop-opacity:1.0000000;"
         offset="1.0000000"
         id="stop2346" />
    </linearGradient>
    <inkscape:perspective
       id="perspective41"
       inkscape:persp3d-origin="8 : 5.3333333 : 1"
       inkscape:vp_z="16 : 8 : 1"
       inkscape:vp_y="0 : 1000 : 0"
       inkscape:vp_x="0 : 8 : 1"
       sodipodi:type="inkscape:persp3d" />
  </defs>
  <sodipodi:namedview
     inkscape:window-y="185"
     inkscape:window-x="182"
     inkscape:window-height="903"
     inkscape:window-width="1029"
     inkscape:document-units="px"
     inkscape:grid-bbox="true"
     showgrid="true"
     inkscape:current-layer="layer1"
     inkscape:cy="1.4143099"
     inkscape:cx="-10.160564"
     inkscape:zoom="5.5494504"
     inkscape:pageshadow="2"
     inkscape:pageopacity="0.0"
     borderopacity="1.0"
     bordercolor="#666666"
     pagecolor="#ffffff"
     id="base"
     inkscape:window-maximized="0" />
  <metadata
     id="metadata2165">
    <rdf:RDF>
      <cc:Work
         rdf:about="">
        <dc:format>image/svg+xml</dc:format>
        <dc:type
           rdf:resource="http://purl.org/dc/dcmitype/StillImage" />
      </cc:Work>
    </rdf:RDF>
  </metadata>
  <g
     inkscape:groupmode="layer"
     inkscape:label="Layer 1"
     id="layer1"
     transform="translate(0,32)">
    <g
       style="fill:none;stroke:#23ad4a;stroke-width:1.5;stroke-miterlimit:4;stroke-opacity:1"
       transform="matrix(2.8915934,0.13872342,-0.13872342,2.8915934,-42.082241,-58.141806)"
       id="g3025">
      <path
         style="stroke-linecap:butt;stroke-linejoin:miter"
         d="m 16.099839,20.228949 5.709764,-5.513202 5.979528,4.749205 3.638408,-5.118753"
         id="path3021"
         sodipodi:nodetypes="cccc" />
      <path
         style="stroke-linecap:butt;stroke-linejoin:miter"
         d="M 21.87405,8.9909968 21.8463,14.306221"
         id="path3023"
         sodipodi:nodetypes="cc" />
    </g>
    <g
       style="fill:none;stroke:#233fad;stroke-width:1.5;stroke-miterlimit:4;stroke-opacity:1"
       transform="matrix(2.8923533,0.12186711,-0.12186711,2.8923533,-42.508336,-57.768711)"
       id="g2074">
      <path
         style="stroke-linecap:butt;stroke-linejoin:miter"
         d="m 16.099839,20.228949 7.215445,-1.559376 5.142562,1.532397 2.969693,-5.855771"
         id="path2076"
         sodipodi:nodetypes="cccc" />
      <path
         style="stroke-linecap:butt;stroke-linejoin:miter"
         d="m 23.473601,15.172684 -0.230154,3.538299"
         id="path2078"
         sodipodi:nodetypes="cc" />
    </g>
    <path
       style="fill:none;stroke:#515151;stroke-width:2.89491963px;stroke-linecap:butt;stroke-linejoin:miter;stroke-opacity:1;marker-end:url(#TriangleOutS)"
       d="m 29.700826,-18.349658 c 16.6561,8.4218049 6.893563,26.7999358 0.583657,30.051524 -6.21784,3.204141 -10.882354,-0.346539 -10.882354,-0.346539"
       id="path3585"
       sodipodi:nodetypes="czc" />
  </g>
</svg>

<?xml version="1.0" encoding="UTF-8" standalone="no"?>
<!-- Created with Inkscape (http://www.inkscape.org/) -->
<svg
   xmlns:dc="http://purl.org/dc/elements/1.1/"
   xmlns:cc="http://web.resource.org/cc/"
   xmlns:rdf="http://www.w3.org/1999/02/22-rdf-syntax-ns#"
   xmlns:svg="http://www.w3.org/2000/svg"
   xmlns="http://www.w3.org/2000/svg"
   xmlns:xlink="http://www.w3.org/1999/xlink"
   xmlns:sodipodi="http://sodipodi.sourceforge.net/DTD/sodipodi-0.dtd"
   xmlns:inkscape="http://www.inkscape.org/namespaces/inkscape"
   inkscape:export-ydpi="90"
   inkscape:export-xdpi="90"
   inkscape:export-filename="/home/paule/Projects/coot/pixmaps/flip-peptide.png"
   sodipodi:docname="edit-backbone.svg"
   sodipodi:docbase="/home/bernhard/Projects/coot/pixmaps"
   inkscape:version="0.45.1"
   sodipodi:version="0.32"
   id="svg2160"
   height="16px"
   width="16px"
   inkscape:output_extension="org.inkscape.output.svg.inkscape">
  <defs
     id="defs2162">
    <marker
       style="overflow:visible"
       id="TriangleOutS"
       refX="0.0"
       refY="0.0"
       orient="auto"
       inkscape:stockid="TriangleOutS">
      <path
         transform="scale(0.2)"
         style="fill-rule:evenodd;stroke:#000000;stroke-width:1.0pt;marker-start:none"
         d="M 5.77,0.0 L -2.88,5.0 L -2.88,-5.0 L 5.77,0.0 z "
         id="path3674" />
    </marker>
    <marker
       style="overflow:visible"
       id="TriangleOutL"
       refX="0.0"
       refY="0.0"
       orient="auto"
       inkscape:stockid="TriangleOutL">
      <path
         transform="scale(0.8)"
         style="fill-rule:evenodd;stroke:#000000;stroke-width:1.0pt;marker-start:none"
         d="M 5.77,0.0 L -2.88,5.0 L -2.88,-5.0 L 5.77,0.0 z "
         id="path3680" />
    </marker>
    <radialGradient
       r="2.0087929"
       fy="8.7307281"
       fx="19.057634"
       cy="8.7307262"
       cx="19.057627"
       gradientTransform="scale(0.955533,1.046536)"
       gradientUnits="userSpaceOnUse"
       id="radialGradient5355"
       xlink:href="#linearGradient2342"
       inkscape:collect="always" />
    <radialGradient
       r="2.0087929"
       fy="8.7307281"
       fx="19.057634"
       cy="8.7307262"
       cx="19.057627"
       gradientTransform="scale(0.955533,1.046536)"
       gradientUnits="userSpaceOnUse"
       id="radialGradient5351"
       xlink:href="#linearGradient2342"
       inkscape:collect="always" />
    <radialGradient
       r="2.0087929"
       fy="8.7307281"
       fx="19.057634"
       cy="8.7307262"
       cx="19.057627"
       gradientTransform="scale(0.955533,1.046536)"
       gradientUnits="userSpaceOnUse"
       id="radialGradient5347"
       xlink:href="#linearGradient2352"
       inkscape:collect="always" />
    <radialGradient
       r="2.0087929"
       fy="8.7307281"
       fx="19.057634"
       cy="8.7307262"
       cx="19.057627"
       gradientTransform="scale(0.955533,1.046536)"
       gradientUnits="userSpaceOnUse"
       id="radialGradient5343"
       xlink:href="#linearGradient2352"
       inkscape:collect="always" />
    <radialGradient
       r="2.0087929"
       fy="8.7307281"
       fx="19.057634"
       cy="8.7307262"
       cx="19.057627"
       gradientTransform="scale(0.955533,1.046536)"
       gradientUnits="userSpaceOnUse"
       id="radialGradient5339"
       xlink:href="#linearGradient2352"
       inkscape:collect="always" />
    <radialGradient
       r="2.0087929"
       fy="8.7307281"
       fx="19.057634"
       cy="8.7307262"
       cx="19.057627"
       gradientTransform="scale(0.955533,1.046536)"
       gradientUnits="userSpaceOnUse"
       id="radialGradient5335"
       xlink:href="#linearGradient2352"
       inkscape:collect="always" />
    <marker
       style="overflow:visible"
       id="marker2348"
       refX="0.0"
       refY="0.0"
       orient="auto"
       inkscape:stockid="TriangleOutL">
      <path
         transform="scale(0.8)"
         style="fill-rule:evenodd;stroke:#000000;stroke-width:1.0pt;marker-start:none"
         d="M 5.77,0.0 L -2.88,5.0 L -2.88,-5.0 L 5.77,0.0 z "
         id="path2350" />
    </marker>
    <marker
       style="overflow:visible"
       id="marker2344"
       refX="0.0"
       refY="0.0"
       orient="auto"
       inkscape:stockid="TriangleOutS">
      <path
         transform="scale(0.2)"
         style="fill-rule:evenodd;stroke:#000000;stroke-width:1.0pt;marker-start:none"
         d="M 5.77,0.0 L -2.88,5.0 L -2.88,-5.0 L 5.77,0.0 z "
         id="path2346" />
    </marker>
    <radialGradient
       inkscape:collect="always"
       xlink:href="#linearGradient2352"
       id="radialGradient2364"
       gradientUnits="userSpaceOnUse"
       gradientTransform="scale(0.955533,1.046536)"
       cx="19.057627"
       cy="8.7307262"
       fx="19.057634"
       fy="8.7307281"
       r="2.0087929" />
    <linearGradient
       id="linearGradient2352">
      <stop
         style="stop-color:#ccfac1;stop-opacity:1.0000000;"
         offset="0.0000000"
         id="stop2354" />
      <stop
         style="stop-color:#5fa248;stop-opacity:1.0000000;"
         offset="1.0000000"
         id="stop2356" />
    </linearGradient>
    <radialGradient
       inkscape:collect="always"
       xlink:href="#linearGradient2330"
       id="radialGradient2336"
       gradientTransform="scale(0.955533,1.046536)"
       cx="19.057627"
       cy="8.7307262"
       fx="19.057634"
       fy="8.7307281"
       r="2.0087929"
       gradientUnits="userSpaceOnUse" />
    <linearGradient
       id="linearGradient2330">
      <stop
         style="stop-color:#d4c1e3;stop-opacity:1.0000000;"
         offset="0.0000000"
         id="stop2332" />
      <stop
         style="stop-color:#003bff;stop-opacity:1.0000000;"
         offset="1.0000000"
         id="stop2334" />
    </linearGradient>
    <radialGradient
       inkscape:collect="always"
       xlink:href="#linearGradient2342"
       id="radialGradient2340"
       gradientUnits="userSpaceOnUse"
       gradientTransform="scale(0.955533,1.046536)"
       cx="19.057627"
       cy="8.7307262"
       fx="19.057634"
       fy="8.7307281"
       r="2.0087929" />
    <linearGradient
       id="linearGradient2342">
      <stop
         style="stop-color:#e0cec1;stop-opacity:1.0000000;"
         offset="0.0000000"
         id="stop2344" />
      <stop
         style="stop-color:#ff0000;stop-opacity:1.0000000;"
         offset="1.0000000"
         id="stop2346" />
    </linearGradient>
    <inkscape:perspective
       id="perspective41"
       inkscape:persp3d-origin="8 : 5.3333333 : 1"
       inkscape:vp_z="16 : 8 : 1"
       inkscape:vp_y="0 : 1000 : 0"
       inkscape:vp_x="0 : 8 : 1"
       sodipodi:type="inkscape:persp3d" />
  </defs>
  <sodipodi:namedview
     inkscape:window-y="229"
     inkscape:window-x="567"
     inkscape:window-height="620"
     inkscape:window-width="822"
     inkscape:document-units="px"
     inkscape:grid-bbox="true"
     showgrid="true"
     inkscape:current-layer="layer1"
     inkscape:cy="8.4865639"
     inkscape:cx="12.903241"
     inkscape:zoom="15.696216"
     inkscape:pageshadow="2"
     inkscape:pageopacity="0.0"
     borderopacity="1.0"
     bordercolor="#666666"
     pagecolor="#ffffff"
     id="base" />
  <metadata
     id="metadata2165">
    <rdf:RDF>
      <cc:Work
         rdf:about="">
        <dc:format>image/svg+xml</dc:format>
        <dc:type
           rdf:resource="http://purl.org/dc/dcmitype/StillImage" />
      </cc:Work>
    </rdf:RDF>
  </metadata>
  <g
     inkscape:groupmode="layer"
     inkscape:label="Layer 1"
     id="layer1">
    <g
       style="fill:none;fill-opacity:1.0000000;stroke:#23ad4a;stroke-width:1.5000000;stroke-miterlimit:4.0000000;stroke-opacity:1.0000000"
       transform="matrix(0.998851,4.791961e-2,-4.791961e-2,0.998851,-14.91515,-10.24551)"
       id="g3025">
      <path
         style="fill-rule:evenodd;stroke-linecap:butt;stroke-linejoin:miter"
         d="M 16.099839,20.228949 L 21.809603,14.715747 L 27.789131,19.464952 L 31.427539,14.346199"
         id="path3021"
         sodipodi:nodetypes="cccc" />
      <path
         style="fill-rule:evenodd;stroke-linecap:butt;stroke-linejoin:miter"
         d="M 21.874050,8.9909968 L 21.846299,14.306221"
         id="path3023"
         sodipodi:nodetypes="cc" />
    </g>
    <g
       style="fill:none;fill-opacity:1;stroke:#233fad;stroke-width:1.5;stroke-miterlimit:4;stroke-opacity:1"
       transform="matrix(0.9991135,4.2096888e-2,-4.2096888e-2,0.9991135,-15.062337,-10.116631)"
       id="g2074">
      <path
         style="fill-rule:evenodd;stroke-linecap:butt;stroke-linejoin:miter"
         d="M 16.099839,20.228949 L 23.315284,18.669573 L 28.457846,20.20197 L 31.427539,14.346199"
         id="path2076"
         sodipodi:nodetypes="cccc" />
      <path
         style="fill-rule:evenodd;stroke-linecap:butt;stroke-linejoin:miter"
         d="M 23.473601,15.172684 L 23.243447,18.710983"
         id="path2078"
         sodipodi:nodetypes="cc" />
    </g>
    <path
       style="fill:none;fill-rule:evenodd;stroke:#515151;stroke-width:1px;stroke-linecap:butt;stroke-linejoin:miter;marker-end:url(#TriangleOutS);stroke-opacity:1"
       d="M 9.8810708,3.5 C 15.634633,6.4091671 12.262333,12.757575 10.082685,13.88078 C 7.9348395,14.987595 6.3235639,13.761074 6.3235639,13.761074"
       id="path3585"
       sodipodi:nodetypes="czc" />
  </g>
</svg>
